X: 37507
T: Sligo, The
R: reel
M: 4/4
K: Eminor
|:BEED EFGB-|BEED EFGE|FGFE DBEF-|FGFE DBBA|
B2ED EFGB-|BEED EFGE|FGFE DBBE|1 FGFE D2BA:|2 FGFE D3E||
|:EFGA Bdef|g2ed efg2|fgad fgab-|ba2g-gfeB|
EFGA Bdef|g2ed efg2|fgad fgab-|ba2g-gfeB:|

